Costumes/cloud.svg

<?xml version="1.0" encoding="UTF-8" standalone="no"?>
<svg
   version="1.1"
   width="135.89166"
   height="84.870262"
   viewBox="-1 -1 135.89166 84.870262"
   id="svg18"
   sodipodi:docname="cloud.svg"
   xmlns:inkscape="http://www.inkscape.org/namespaces/inkscape"
   xmlns:sodipodi="http://sodipodi.sourceforge.net/DTD/sodipodi-0.dtd"
   xmlns="http://www.w3.org/2000/svg"
   xmlns:svg="http://www.w3.org/2000/svg">
  <sodipodi:namedview
     id="namedview20"
     pagecolor="#ffffff"
     bordercolor="#000000"
     borderopacity="0.25"
     inkscape:showpageshadow="2"
     inkscape:pageopacity="0.0"
     inkscape:pagecheckerboard="0"
     inkscape:deskcolor="#d1d1d1" />
  <defs
     id="defs12">
    <linearGradient
       id="grad_1"
       y2="271.28366"
       gradientTransform="scale(1.3784568,0.72544891)"
       x1="137.23222"
       y1="186.8911"
       x2="221.62479"
       gradientUnits="userSpaceOnUse">
      <stop
         offset="0"
         stop-color="#FFFFFF"
         stop-opacity="1"
         id="stop2" />
      <stop
         offset="1"
         stop-color="#CCCCCC"
         stop-opacity="1"
         id="stop4" />
    </linearGradient>
    <radialGradient
       id="grad_2"
       cx="186.96451"
       cy="224.58218"
       r="60.433597"
       gradientTransform="scale(1.3799838,0.72464618)"
       fx="186.96451"
       fy="224.58218"
       gradientUnits="userSpaceOnUse">
      <stop
         offset="0"
         stop-color="#FFFFFF"
         stop-opacity="1"
         id="stop7" />
      <stop
         offset="1"
         stop-color="#CCCCCC"
         stop-opacity="1"
         id="stop9" />
    </radialGradient>
  </defs>
  <!-- Exported by Scratch - http://scratch.mit.edu/ -->
  <g
     id="ID0.5991008533164859"
     transform="translate(-170.72582,-136.09899)">
    <path
       id="ID0.20794556522741914"
       fill="url(#grad_1)"
       stroke="none"
       stroke-linecap="round"
       d="m 249,137.5 c 10.214,-2.137 21.897,-3.139 32,0.5 3.55,1.453 -1.186,8.8 1.25,11.9 1.343,1.708 4.737,-2.733 6.45,-1.05 6.854,5.816 16.756,12.22 16.8,21.4 0.046,9.434 -7.922,19.121 -16.559,23.152 -12.094,5.633 -26.717,2.753 -40.041,1.948 -12.451,-0.752 -24.547,-4.42 -36.85,-6.5 -6.102,-0.802 -13,0.829 -18.4,-2.15 -3.287,-1.813 -5.165,-6.658 -4.25,-10.45 1.334,-4.407 9.61,-4.208 11.1,-8.65 1.523,-4.547 -5.241,-9.943 -3.4,-14.8 1.394,-3.297 6.836,-3.04 10.7,-3.6 6.622,-0.951 13.664,1.716 20.1,0 7.751,-2.095 13.236,-10.055 21.1,-11.7 z"
       transform="matrix(1.1681416,0,0,1.3862596,-51.25,-52.85)"
       style="fill:url(#grad_1)" />
    <path
       id="path15"
       fill="url(#grad_2)"
       stroke="none"
       stroke-linecap="round"
       d="m 249,137.5 c 4.71,-1.401 9.907,-1.545 13.45,1 2.99,1.824 1.041,6.599 2.4,9.6 1.047,2.317 2.544,5.255 4.9,6.95 2.196,1.22 4.994,0.909 7.75,1.15 4.393,0.355 9.442,-2.315 13.25,-0.35 6.281,3.098 15.271,7.557 14.75,14.4 -0.728,9.55 -12.219,14.766 -17.95,22.5 -1.222,1.987 3.358,0.502 1.391,0.652 -7.862,0.597 -14.53,1.989 -21.941,1.698 -9.123,-0.564 -17.878,-1.663 -27.4,-4.25 -6.859,-1.93 -12.075,-8.137 -19.15,-9.6 -7.157,-1.481 -15.376,2.739 -21.95,0.35 -3.044,-1.116 -5.86,-6.138 -4.1,-8.85 2.445,-3.696 10.681,-0.538 13.7,-4.2 1.923,-2.432 -2.113,-5.812 -1.8,-8.85 -0.41,-3.564 -1.789,-9.009 1.5,-10.5 6.09,-2.766 13.664,1.716 20.1,0 7.751,-2.095 13.404,-9.396 21.1,-11.7 z"
       transform="matrix(1.0951059,0,0,1.2995864,-30.9,-34.05)"
       style="fill:url(#grad_2)" />
  </g>
</svg>

<svg version="1.1" width="137" height="86" viewBox="-1 -1 137 86" xmlns="http://www.w3.org/2000/svg" xmlns:xlink="http://www.w3.org/1999/xlink">
  <defs>
    <linearGradient id="grad_1" y2="1">
      <stop offset="0" stop-color="#FFFFFF" stop-opacity="1"/>
      <stop offset="1" stop-color="#CCCCCC" stop-opacity="1"/>
    </linearGradient>
    <radialGradient id="grad_2" cx="0.5745" cy="0.4475" r="0.74685">
      <stop offset="0" stop-color="#FFFFFF" stop-opacity="1"/>
      <stop offset="1" stop-color="#CCCCCC" stop-opacity="1"/>
    </radialGradient>
  </defs>
  <!-- Exported by Scratch - http://scratch.mit.edu/ -->
  <g id="ID0.5991008533164859" transform="matrix(1, 0, 0, 1, -169, -135)">
    <path id="ID0.20794556522741914" fill="url(#grad_1)" stroke="none" stroke-linecap="round" d="M 249 137.500 C 259.214 135.363 270.897 134.361 281 138 C 284.550 139.453 279.814 146.800 282.250 149.900 C 283.593 151.608 286.987 147.167 288.700 148.850 C 295.554 154.666 305.456 161.070 305.500 170.250 C 305.546 179.684 297.578 189.371 288.941 193.402 C 276.847 199.035 262.224 196.155 248.900 195.350 C 236.449 194.598 224.353 190.930 212.050 188.850 C 205.948 188.048 199.050 189.679 193.650 186.700 C 190.363 184.887 188.485 180.042 189.400 176.250 C 190.734 171.843 199.010 172.042 200.500 167.600 C 202.023 163.053 195.259 157.657 197.100 152.800 C 198.494 149.503 203.936 149.760 207.800 149.200 C 214.422 148.249 221.464 150.916 227.900 149.200 C 235.651 147.105 241.136 139.145 249 137.500 Z " transform="matrix(1.1681416034698486, 0, 0, 1.3862595558166504, -51.25, -52.85)"/>
    <path id="ID0.20794556522741914" fill="url(#grad_2)" stroke="none" stroke-linecap="round" d="M 249 137.500 C 253.710 136.099 258.907 135.955 262.450 138.500 C 265.440 140.324 263.491 145.099 264.850 148.100 C 265.897 150.417 267.394 153.355 269.750 155.050 C 271.946 156.270 274.744 155.959 277.500 156.200 C 281.893 156.555 286.942 153.885 290.750 155.850 C 297.031 158.948 306.021 163.407 305.500 170.250 C 304.772 179.800 293.281 185.016 287.550 192.750 C 286.328 194.737 290.908 193.252 288.941 193.402 C 281.079 193.999 274.411 195.391 267 195.100 C 257.877 194.536 249.122 193.437 239.600 190.850 C 232.741 188.920 227.525 182.713 220.450 181.250 C 213.293 179.769 205.074 183.989 198.500 181.600 C 195.456 180.484 192.640 175.462 194.400 172.750 C 196.845 169.054 205.081 172.212 208.100 168.550 C 210.023 166.118 205.987 162.738 206.300 159.700 C 205.890 156.136 204.511 150.691 207.800 149.200 C 213.890 146.434 221.464 150.916 227.900 149.200 C 235.651 147.105 241.304 139.804 249 137.500 Z " transform="matrix(1.0951058864593506, 0, 0, 1.2995864152908325, -30.9, -34.05)"/>
  </g>
</svg>
